client/public/img/game/shared/particles/vaccine_particle.svg

<?xml version="1.0" encoding="UTF-8" standalone="no"?>
<!-- Created with Inkscape (http://www.inkscape.org/) -->

<svg
   width="32"
   height="32"
   viewBox="0 0 8.4666665 8.4666666"
   version="1.1"
   id="svg1"
   xmlns="http://www.w3.org/2000/svg"
   xmlns:svg="http://www.w3.org/2000/svg">
  <defs
     id="defs1" />
  <g
     id="layer1">
    <path
       id="path1"
       style="color:#000000;font-style:normal;font-variant:normal;font-weight:normal;font-stretch:normal;font-size:medium;line-height:normal;font-family:sans-serif;font-variant-ligatures:normal;font-variant-position:normal;font-variant-caps:normal;font-variant-numeric:normal;font-variant-alternates:normal;font-variant-east-asian:normal;font-feature-settings:normal;font-variation-settings:normal;text-indent:0;text-align:start;text-decoration-line:none;text-decoration-style:solid;text-decoration-color:#000000;letter-spacing:normal;word-spacing:normal;text-transform:none;writing-mode:lr-tb;direction:ltr;text-orientation:mixed;dominant-baseline:auto;baseline-shift:baseline;text-anchor:start;white-space:normal;shape-padding:0;shape-margin:0;inline-size:0;clip-rule:nonzero;display:inline;overflow:visible;visibility:visible;isolation:auto;mix-blend-mode:normal;color-interpolation:sRGB;color-interpolation-filters:linearRGB;solid-color:#000000;solid-opacity:1;vector-effect:none;fill:#47ebeb;fill-opacity:1;fill-rule:evenodd;stroke:none;stroke-linecap:round;stroke-linejoin:miter;stroke-miterlimit:29;stroke-dasharray:none;stroke-dashoffset:0;stroke-opacity:1;-inkscape-stroke:none;color-rendering:auto;image-rendering:auto;shape-rendering:auto;text-rendering:auto;enable-background:accumulate;stop-color:#000000;stop-opacity:1"
       d="M 4.1640751,0.23021917 3.4101277,2.2174357 1.4371535,1.3119942 A 0.07613273,0.07613273 135.20758 0 0 1.3359764,1.4124408 L 2.2262207,3.3899739 0.23574064,4.1278561 A 0.09427497,0.09427497 90.214705 0 0 0.23507907,4.3044012 L 2.2169189,5.0560221 1.3403442,7.0033994 a 0.09192269,0.09192269 44.788023 0 0 0.1221723,0.1212717 l 1.9419268,-0.8914599 0.774853,2.043267 a 0.07626824,0.07626824 179.78608 0 0 0.1428253,-5.333e-4 l 0.754571,-2.035499 1.9487451,0.8772845 A 0.08794533,0.08794533 134.78675 0 0 7.1414622,7.000839 L 6.2487141,5.0565388 8.2473145,4.298449 A 0.08799329,0.08799329 89.787565 0 0 8.2467036,4.1336728 L 6.2399291,3.3894571 7.1202682,1.4720696 A 0.0958693,0.0958693 45.216018 0 0 6.9937992,1.3446434 L 5.0704915,2.210201 4.3369837,0.23088707 a 0.0923335,0.0923335 0.22131851 0 0 -0.1729086,-6.679e-4 z"
       transform="matrix(1.0414276,0,0,1.0382097,-0.18145297,-0.17715899)" />
  </g>
</svg>

<svg xmlns="http://www.w3.org/2000/svg" width="32" height="32" viewBox="0 0 8.467 8.467"><path d="M4.164.23 3.41 2.217l-1.973-.905a.076.076 135.208 0 0-.101.1l.89 1.978-1.99.738a.094.094 90.215 0 0 0 .176l1.98.752-.876 1.947a.092.092 44.788 0 0 .123.122l1.941-.892.775 2.043a.076.076 179.786 0 0 .143 0l.755-2.036 1.948.878A.088.088 134.787 0 0 7.141 7L6.25 5.057l1.998-.759a.088.088 89.788 0 0 0-.164L6.24 3.389l.88-1.917a.096.096 45.216 0 0-.126-.127L5.07 2.21 4.337.23a.092.092.221 0 0-.173 0" style="color:#000;font-style:normal;font-variant:normal;font-weight:400;font-stretch:normal;font-size:medium;line-height:normal;font-family:sans-serif;font-variant-ligatures:normal;font-variant-position:normal;font-variant-caps:normal;font-variant-numeric:normal;font-variant-alternates:normal;font-variant-east-asian:normal;font-feature-settings:normal;font-variation-settings:normal;text-indent:0;text-align:start;text-decoration-line:none;text-decoration-style:solid;text-decoration-color:#000;letter-spacing:normal;word-spacing:normal;text-transform:none;writing-mode:lr-tb;direction:ltr;text-orientation:mixed;dominant-baseline:auto;baseline-shift:baseline;text-anchor:start;white-space:normal;shape-padding:0;shape-margin:0;inline-size:0;clip-rule:nonzero;display:inline;overflow:visible;visibility:visible;isolation:auto;mix-blend-mode:normal;color-interpolation:sRGB;color-interpolation-filters:linearRGB;solid-color:#000;solid-opacity:1;vector-effect:none;fill:#47ebeb;fill-opacity:1;fill-rule:evenodd;stroke:none;stroke-linecap:round;stroke-linejoin:miter;stroke-miterlimit:29;stroke-dasharray:none;stroke-dashoffset:0;stroke-opacity:1;-inkscape-stroke:none;color-rendering:auto;image-rendering:auto;shape-rendering:auto;text-rendering:auto;stop-color:#000;stop-opacity:1" transform="matrix(1.04143 0 0 1.03821 -.181 -.177)"/></svg>
